X:125
T: O'Meara's
S: "First Collection of Traditional Irish Music" (M.Mulvihill)
Z: B.Black
L: 1/8
M: 6/8
R: jig
K: D
A|dcd AFE|D/E/FD ECA,|DFA dfa|ged cde|
dcd AFE|D/E/FD ECA,|DFA dfa|gec d2 :|
g|fed f/g/af|ged cde|fdB gec|dcB AFA|
dcd afd|BAB gec|dcd AFD|A,CE D2 :|
